src/images/icon/profile_boy.svg

<svg height="48" viewBox="0 0 48 48" width="48" xmlns="http://www.w3.org/2000/svg"><g fill="none"><path d="m24 0c13.3333333 0 24 10.6666667 24 24s-10.6666667 24-24 24-24-10.6666667-24-24 10.6666667-24 24-24z" fill="#dee8f1"/><path d="m28.16 32.8533333v-1.4933333c-.2133333.2133333-.5333333.32-.7466667.64-.96.64-1.4933333.7466667-3.3066666.7466667-1.4933334-.1066667-2.4533334-.2133333-3.52-.96-.2133334-.1066667-.3200001-.2133333-.5333334-.4266667v1.4933333l4.0533334 2.1333334zm-4.0533333 2.24c.1066667.15.1066667.15.2133333.15l-.2133333-.15-.2133334.15c.1066667-.15.1066667-.15.2133334-.15z" fill="#f4d2b8"/><path d="m14.9333333 20.6933333s-.1066666-.4266666-.64-.4266666c-.8533333 0-1.28.7466667-1.3866666 1.0666666-.2133334.4266667-.4266667 1.92.64 2.9866667.64.5333334 1.4933333.4266667 1.8133333.4266667-.2133333-1.0666667-.32-2.4533334-.4266667-4.0533334zm17.8133334 1.3866667-.2133334 1.28c-.1066667.5333334-.1066667 1.0666667-.2133333 1.4933333.2133333 0 1.0666667.1066667 1.92-.4266666 1.0666667-1.0666667.8533333-2.56.64-2.9866667 0-.2133333-.5333333-1.0666667-1.3866667-1.0666667-.2133333 0-.4266666.1066667-.5333333.2133334l-.32 2.1333333c.1066667.1066667.1066667-.64.1066667-.64z" fill="#ffe0c7"/><path d="m28.16 31.04v.32c1.6-1.1733333 2.9866667-2.6666667 3.84-4.2666667.2133333-.32.32-1.1733333.4266667-2.24l.2133333-1.4933333c.1066667-.7466667.1066667-1.4933333.2133333-2.3466667 0-.7466667-.1066667-1.7066667-.32-3.0933333-.64-2.88-1.8133333-3.4133334-2.4533333-3.6266667-8-2.24-12.48 1.4933334-12.48 1.4933334s-1.92.96-2.24 1.92c-.2133333.96-.2133333 4.5866666-.2133333 4.5866666l-.2133334-1.6v.2133334l.5333334 3.9466666h-.1066667c.1066667.64.2133333 1.28.32 1.6.96 2.4533334 2.88 3.84 4.3733333 5.0133334v-.32zm-5.9733333-2.0266667c.1066667-.1066667.2133333-.1066667.32 0 .4266666.32.96.5333334 1.7066666.5333334.7466667 0 1.28-.2133334 1.7066667-.5333334.1066667-.1066667.2133333-.1066667.32 0s.1066667.2133334 0 .32c-.7466667.64-1.6.64-2.1333333.64-.64 0-1.3866667-.1066667-1.92-.64-.1066667-.1066666-.1066667-.32 0-.32z" fill="#ffe0c7"/><path d="m24.1066667 32.7466667c1.7066667 0 2.3466666-.1066667 3.3066666-.7466667.2133334-.2133333.5333334-.32.7466667-.64v-.32h-8.1066667v.32c.2133333.2133333.32.2133333.5333334.4266667 1.0666666.7466667 1.92.8533333 3.52.96zm-9.1733334-11.9466667c.1066667 1.3866666.2133334 2.88.4266667 3.9466667h.1066667zm17.4933334 4.0533333c.1066667-.4266666.2133333-.96.2133333-1.4933333z" fill="#ffe0c7"/><path d="m22.08 37.5466667-1.92-1.6 3.2 5.44.2133333-3.84-.64-.96 1.0666667-1.4933334h-.1066667zm4.0533333.1066666-1.92-2.4533333h-.1066666l1.0666666 1.4933333-.64.96.2133334 4.0533334 2.88-5.44z" fill="#edf2f2"/><path d="m24.1342593 35.1448958c-.16875 0 0 0 0 0s.16875 0 0 0zm.5057407 2.4017709.64-.96-1.0666667-1.4933334h-.2133333l-1.0666667 1.4933334.64.96-.2133333 3.84.4266667.7466666h1.0666666l.2133334-.5333333c-.1066667.1066667-.4266667-4.0533333-.4266667-4.0533333z" fill="#ef6565"/><path d="m15.1466667 22.4s-.1066667-3.7333333.2133333-4.5866667c.2133333-1.0666666 2.24-1.92 2.24-1.92s4.48-3.7333333 12.48-1.4933333c.64.2133333 1.7066667.64 2.4533333 3.6266667.32 1.4933333.32 2.3466666.32 3.0933333v1.7066667l.32-2.1333334 1.0666667-6.72s-.2133333-3.9466666-3.7333333-3.7333333c-.1066667-2.77333333-3.3066667-5.65333333-10.3466667-3.19999998-5.5466667 1.81333331-6.2933333 6.82666668-6.2933333 6.82666668l1.0666666 6.72z" fill="#312b28"/><path d="m29.76 34.24c.8533333.1066667 2.4533333.32 3.7333333.96s2.0266667 1.6 2.6666667 2.4533333c-2.9866667 2.56-6.8266667 4.2666667-10.9866667 4.48h-.32l.2133334-.5333333 2.88-5.44 1.0666666-1.0666667.8533334-.7466666zm-11.4133333 0-.1066667.1066667 1.1733333 1.0666666.64.5333334 3.0933334 5.44.4266666.7466666h-.4266666c-4.2666667-.2133333-8.1066667-1.8133333-11.0933334-4.3733333.5333334-.96 1.28-1.8133333 2.3466667-2.4533333 1.3866667-.8533334 2.9866667-.96 3.9466667-1.0666667z" fill="#0080ff"/><g fill="#fff"><path d="m24.2133333 35.0933333h4.16l.4266667-.8533333h.96l-1.6-1.4933333v1.8133333c0 .1066667-2.0266667.5333333-3.9466667.5333333z"/><path d="m24.2133333 35.0933333c1.92 0 3.84-.5333333 3.84-.5333333v-1.8133333l-4.0533333 2.1333333zm3.6266667 1.0666667.5333333-1.0666667h-4.16l1.92 2.4533334zm.96-1.92-.4266667.8533333h.64l.8533334-.7466666-.1066667-.1066667z"/><path d="m27.84 36.16 1.0666667-1.0666667h-.64zm-8.64-1.92.5333333.8533333h4.2666667c-1.92 0-3.84-.5333333-3.84-.5333333v-1.8133333l-1.7066667 1.4933333z"/><path d="m23.8933333 35.0933333.2133334-.2133333-4.0533334-2.1333333v1.8133333c0 .1066667 1.92.5333333 3.84.5333333zm-1.8133333 2.4533334 1.92-2.4533334h-4.16l.32.7466667zm-2.56-2.1333334-.2133333-.2133333h.32l-.4266667-.96h-.7466667l-.1066666.1066667z"/><path d="m19.7333333 35.0933333h-.32l.2133334.2133334.5333333.5333333z"/></g><path d="m24.2133333 29.8666667c.5333334 0 1.3866667 0 2.1333334-.64.1066666-.1066667.1066666-.2133334 0-.32-.1066667-.1066667-.2133334-.1066667-.32 0-.4266667.32-.96.5333333-1.7066667.5333333s-1.28-.2133333-1.7066667-.5333333c-.1066666-.1066667-.2133333-.1066667-.32 0s-.1066667.2133333 0 .32c.5333334.64 1.28.64 1.92.64z" fill="#eac3a9"/></g></svg>

<?xml version="1.0" encoding="UTF-8"?>
<svg width="48px" height="48px" viewBox="0 0 48 48" version="1.1" xmlns="http://www.w3.org/2000/svg" xmlns:xlink="http://www.w3.org/1999/xlink">
    
    <g id="Dashboard" stroke="none" stroke-width="1" fill="none" fill-rule="evenodd">
        <g id="00-Menu-交互备份" transform="translate(-545.000000, -62.000000)" fill-rule="nonzero">
            <g id="男头像" transform="translate(545.000000, 62.000000)">
                <path d="M24,0 C37.3333333,0 48,10.6666667 48,24 C48,37.3333333 37.3333333,48 24,48 C10.6666667,48 0,37.3333333 0,24 C0,10.6666667 10.6666667,0 24,0 Z" id="profile_boy" fill="#DEE8F1"></path>
                <path d="M28.16,32.8533333 L28.16,31.36 C27.9466667,31.5733333 27.6266667,31.68 27.4133333,32 C26.4533333,32.64 25.92,32.7466667 24.1066667,32.7466667 C22.6133333,32.64 21.6533333,32.5333334 20.5866667,31.7866667 C20.3733333,31.68 20.2666666,31.5733334 20.0533333,31.36 L20.0533333,32.8533333 L24.1066667,34.9866667 L28.16,32.8533333 L28.16,32.8533333 Z M24.1066667,35.0933333 C24.2133334,35.2433333 24.2133334,35.2433333 24.32,35.2433333 L24.1066667,35.0933333 L23.8933333,35.2433333 C24,35.0933333 24,35.0933333 24.1066667,35.0933333 Z" id="形状" fill="#F4D2B8"></path>
                <path d="M14.9333333,20.6933333 C14.9333333,20.6933333 14.8266667,20.2666667 14.2933333,20.2666667 C13.44,20.2666667 13.0133333,21.0133334 12.9066667,21.3333333 C12.6933333,21.76 12.48,23.2533333 13.5466667,24.32 C14.1866667,24.8533334 15.04,24.7466667 15.36,24.7466667 C15.1466667,23.68 15.04,22.2933333 14.9333333,20.6933333 C14.9333333,20.8 14.9333333,20.6933333 14.9333333,20.6933333 Z M32.7466667,22.08 L32.5333333,23.36 C32.4266666,23.8933334 32.4266666,24.4266667 32.32,24.8533333 C32.5333333,24.8533333 33.3866667,24.96 34.24,24.4266667 C35.3066667,23.36 35.0933333,21.8666667 34.88,21.44 C34.88,21.2266667 34.3466667,20.3733333 33.4933333,20.3733333 C33.28,20.3733333 33.0666667,20.48 32.96,20.5866667 L32.64,22.72 C32.7466667,22.8266667 32.7466667,22.08 32.7466667,22.08 L32.7466667,22.08 Z" id="形状" fill="#FFE0C7"></path>
                <path d="M28.16,31.04 L28.16,31.36 C29.76,30.1866667 31.1466667,28.6933333 32,27.0933333 C32.2133333,26.7733333 32.32,25.92 32.4266667,24.8533333 L32.64,23.36 C32.7466667,22.6133333 32.7466667,21.8666667 32.8533333,21.0133333 C32.8533333,20.2666666 32.7466666,19.3066666 32.5333333,17.92 C31.8933333,15.04 30.72,14.5066666 30.08,14.2933333 C22.08,12.0533333 17.6,15.7866667 17.6,15.7866667 C17.6,15.7866667 15.68,16.7466667 15.36,17.7066667 C15.1466667,18.6666667 15.1466667,22.2933333 15.1466667,22.2933333 L14.9333333,20.6933333 L14.9333333,20.9066667 L15.4666667,24.8533333 L15.36,24.8533333 C15.4666667,25.4933333 15.5733333,26.1333333 15.68,26.4533333 C16.64,28.9066667 18.56,30.2933333 20.0533333,31.4666667 L20.0533333,31.1466667 L28.16,31.04 L28.16,31.04 Z M22.1866667,29.0133333 C22.2933334,28.9066666 22.4,28.9066666 22.5066667,29.0133333 C22.9333333,29.3333333 23.4666667,29.5466667 24.2133333,29.5466667 C24.96,29.5466667 25.4933333,29.3333333 25.92,29.0133333 C26.0266667,28.9066666 26.1333333,28.9066666 26.24,29.0133333 C26.3466667,29.12 26.3466667,29.2266667 26.24,29.3333333 C25.4933333,29.9733333 24.64,29.9733333 24.1066667,29.9733333 C23.4666667,29.9733333 22.72,29.8666666 22.1866667,29.3333333 C22.08,29.2266667 22.08,29.0133333 22.1866667,29.0133333 L22.1866667,29.0133333 Z" id="形状" fill="#FFE0C7"></path>
                <path d="M24.1066667,32.7466667 C25.8133334,32.7466667 26.4533333,32.64 27.4133333,32 C27.6266667,31.7866667 27.9466667,31.68 28.16,31.36 L28.16,31.04 L20.0533333,31.04 L20.0533333,31.36 C20.2666666,31.5733333 20.3733333,31.5733333 20.5866667,31.7866667 C21.6533333,32.5333334 22.5066667,32.64 24.1066667,32.7466667 Z M14.9333333,20.8 C15.04,22.1866666 15.1466667,23.68 15.36,24.7466667 L15.4666667,24.7466667 L14.9333333,20.8 Z M32.4266667,24.8533333 C32.5333334,24.4266667 32.64,23.8933333 32.64,23.36 L32.4266667,24.8533333 Z" id="形状" fill="#FFE0C7"></path>
                <path d="M22.08,37.5466667 L20.16,35.9466667 L23.36,41.3866667 L23.5733333,37.5466667 L22.9333333,36.5866667 L24,35.0933333 L23.8933333,35.0933333 L22.08,37.5466667 L22.08,37.5466667 Z M26.1333333,37.6533333 L24.2133333,35.2 L24.1066667,35.2 L25.1733333,36.6933333 L24.5333333,37.6533333 L24.7466667,41.7066667 L27.6266667,36.2666667 L26.1333333,37.6533333 L26.1333333,37.6533333 Z" id="形状" fill="#EDF2F2"></path>
                <path d="M24.1342593,35.1448958 C23.9655093,35.1448958 24.1342593,35.1448958 24.1342593,35.1448958 C24.1342593,35.1448958 24.3030093,35.1448958 24.1342593,35.1448958 Z M24.64,37.5466667 L25.28,36.5866667 L24.2133333,35.0933333 L24,35.0933333 L22.9333333,36.5866667 L23.5733333,37.5466667 L23.36,41.3866667 L23.7866667,42.1333333 L24.8533333,42.1333333 L25.0666667,41.6 C24.96,41.7066667 24.64,37.5466667 24.64,37.5466667 Z" id="形状" fill="#EF6565"></path>
                <path d="M15.1466667,22.4 C15.1466667,22.4 15.04,18.6666667 15.36,17.8133333 C15.5733333,16.7466667 17.6,15.8933333 17.6,15.8933333 C17.6,15.8933333 22.08,12.16 30.08,14.4 C30.72,14.6133333 31.7866667,15.04 32.5333333,18.0266667 C32.8533333,19.52 32.8533333,20.3733333 32.8533333,21.12 L32.8533333,22.8266667 L33.1733333,20.6933333 L34.24,13.9733333 C34.24,13.9733333 34.0266667,10.0266667 30.5066667,10.24 C30.4,7.46666667 27.2,4.58666667 20.16,7.04000002 C14.6133333,8.85333333 13.8666667,13.8666667 13.8666667,13.8666667 L14.9333333,20.5866667 L15.1466667,22.4 Z" id="形状" fill="#312B28"></path>
                <path d="M29.76,34.24 C30.6133333,34.3466667 32.2133333,34.56 33.4933333,35.2 C34.7733333,35.84 35.52,36.8 36.16,37.6533333 C33.1733333,40.2133333 29.3333333,41.92 25.1733333,42.1333333 L25.1733333,42.1333333 L24.8533333,42.1333333 L25.0666667,41.6 L27.9466667,36.16 L29.0133333,35.0933333 L29.8666667,34.3466667 Z M18.3466667,34.24 L18.24,34.3466667 L19.4133333,35.4133333 L20.0533333,35.9466667 L23.1466667,41.3866667 L23.5733333,42.1333333 L23.1466667,42.1333333 C18.88,41.92 15.04,40.32 12.0533333,37.76 C12.5866667,36.8 13.3333333,35.9466667 14.4,35.3066667 C15.7866667,34.4533333 17.3866667,34.3466667 18.3466667,34.24 L18.3466667,34.24 Z" id="形状结合" fill="#0080FF"></path>
                <path d="M24.2133333,35.0933333 L28.3733333,35.0933333 L28.8,34.24 L29.76,34.24 L28.16,32.7466667 L28.16,34.56 C28.16,34.6666667 26.1333333,35.0933333 24.2133333,35.0933333 Z" id="路径" fill="#FFFFFF"></path>
                <path d="M24.2133333,35.0933333 C26.1333333,35.0933333 28.0533333,34.56 28.0533333,34.56 L28.0533333,32.7466667 L24,34.88 L24.2133333,35.0933333 Z M27.84,36.16 L28.3733333,35.0933333 L24.2133333,35.0933333 L26.1333333,37.5466667 L27.84,36.16 L27.84,36.16 Z M28.8,34.24 L28.3733333,35.0933333 L29.0133333,35.0933333 L29.8666667,34.3466667 L29.76,34.24 L28.8,34.24 L28.8,34.24 Z" id="形状" fill="#FFFFFF"></path>
                <path d="M27.84,36.16 L28.9066667,35.0933333 L28.2666667,35.0933333 L27.84,36.16 Z M19.2,34.24 L19.7333333,35.0933333 L24,35.0933333 C22.08,35.0933333 20.16,34.56 20.16,34.56 L20.16,32.7466667 L18.4533333,34.24 L19.2,34.24 L19.2,34.24 Z" id="形状" fill="#FFFFFF"></path>
                <path d="M23.8933333,35.0933333 L24.1066667,34.88 L20.0533333,32.7466667 L20.0533333,34.56 C20.0533333,34.6666667 21.9733333,35.0933333 23.8933333,35.0933333 L23.8933333,35.0933333 Z M22.08,37.5466667 L24,35.0933333 L19.84,35.0933333 L20.16,35.84 L22.08,37.5466667 L22.08,37.5466667 Z M19.52,35.4133333 L19.3066667,35.2 L19.6266667,35.2 L19.2,34.24 L18.4533333,34.24 L18.3466667,34.3466667 L19.52,35.4133333 Z" id="形状" fill="#FFFFFF"></path>
                <polygon id="路径" fill="#FFFFFF" points="19.7333333 35.0933333 19.4133333 35.0933333 19.6266667 35.3066667 20.16 35.84"></polygon>
                <path d="M24.2133333,29.8666667 C24.7466667,29.8666667 25.6,29.8666667 26.3466667,29.2266667 C26.4533333,29.12 26.4533333,29.0133333 26.3466667,28.9066667 C26.24,28.8 26.1333333,28.8 26.0266667,28.9066667 C25.6,29.2266667 25.0666667,29.44 24.32,29.44 C23.5733333,29.44 23.04,29.2266667 22.6133333,28.9066667 C22.5066667,28.8 22.4,28.8 22.2933333,28.9066667 C22.1866666,29.0133334 22.1866666,29.12 22.2933333,29.2266667 C22.8266667,29.8666667 23.5733333,29.8666667 24.2133333,29.8666667 Z" id="路径" fill="#EAC3A9"></path>
            </g>
        </g>
    </g>
</svg>
